X: 50
T: Schottis från Enviken
O: Enviken, Dalarna
Z: Transcribed to abc by Jon Magnusson 080519
R: Schottis
M: 4/4
L: 1/8
K: F
F2 Ac f2 fe|eddB G4|c2 eg bgeg|gffg a2 f2|
F2 Ac f2 fe|eddB G4|c2 eg bgeg|f2 a2 f4:|
|:[K: Am] a2 af d2 df|feec AAAB|c2 Ac B2GB|A2 E2 C2 A,2|
a2 af d2 df|feec AAAB|c2 Ac B2GB|[1 A2 A2 A4:|[2 A2 A2 AGFE|]

